X: 33321
T: Quarrelsome Piper, The
R: hornpipe
M: 4/4
K: Gmajor
|:(3DEF|(3GAG (3FGF (3EFE D2|B>AG>B A>GE>F|G>Bd>g e>cA>F|G>gf>e (3ded (3cBA|
(3GAG (3FGF (3EFE (3DED|B>DG>B A>GE>F|G>Bd>g e>cA>F|G2 B2 G2:|
|:(3Bcd|e>B (3BcB g>B (3BcB|e>Bg>B e>B (3BcB|d>A (3ABA f>A (3ABA|d>Af>e (3ded (3cBA|
(3GAG (3FGF (3EFE D2|B>DG>B A>GE>F|G>Bd>g e>cA>F|G2 B2 G2:|

